X:79
T:Br\"annvinspolskan
R:sl\"angpolska
H:Jfr #34, #189, #230
A:\"Osterg\"otland
B:SvL \"Ogl 368, efter Nils Olsson, Sj\"ogestad, V{\aa}nga
Z:id:hn-sp-79
M:3/4
L:1/16
K:C
c4 B4 c4 | d3c B2c2 d4 | e4 f2e2 d2c2 | B2A2 G2F2 E2G2 |
c4 B4 c4 | d3c B2c2 d2e2 | f2ag fgfe dedc | BAGB d2c2 c4 :|
|: c2e2 e2g2 g2g2 | g2fg agfe g2f2 | d2f2 f2f2 f2f2 |
f2ef gfed d2c2 | c2e2 e2g2 g2g2 | agfg agfe g2f2 | d2f2 f2f2 f2f2 |
gfef gfed d2c2 | EGcc EGcc EGcc | c2G2 E2G2 F2D2 | EGcc EGcc EGcc |
c2G2 E2G2 F2D2 | G2EG c2Gc e2g2 | (gf)dB d2c2 c4 :|
<end>
<start>
